X:2243
T:Bryan O'Lynn
T:Cockled Old Man, The
T:Brian O'Lynn
R:jig
N:See also #45, #126
Z:id:hn-jig-134
M:6/8
K:Ador
B|:cAd cAG|EDE GAB|cAd cAG|EAA ~A2B|
cAd cAG|EDE GAB|cde =fed|1 cAA A2B:|2 cAA A2f||
gea ged|cAB cde|eaa age|ed^c def|
gea ged|cAB cde|=fed cAG|1 EAA A2f:|2 EAA A2||
